X: 494
T:Log Driver's Waltz
N: page 200
N: heptatonic
R: Waltz
M:3/4
L:1/8
C:Wade Hemsworth
K:G
D DD|:"G"D2 B2 G2|D4 DD|"C"E2 c2 A2|"Am"E4 E2|
"D"D2 F2 A2|d2 d2 d2|e2 d2 ^c2|"G"d2 z2 D2|
"G"D2 B2 G2|D2 ^C2 D2|"C"E2 c2 A2|"Am"E4 EE|
"D"D2 d3 d|d2 c2 A2|"G"B2 G2 G2|"D"d2 e2 f2||
"G"g4 d2|B4 d2|"C"c4 e2|e2 c4|
"G"B2 d3 d|d2 c2 B2|"D"A3 d d2|d2 e2 f2|
"G"g4 d2|B4 d2|"C"c4 e2|e2 c3 c|"G"B2 d2 d2|d2 c2 B2|
